src/catppuccin-latte-dark-cursors/pointer_24.svg

<?xml version="1.0" encoding="UTF-8" standalone="no"?>
<svg
   id="svg5958"
   width="24"
   height="24"
   version="1.1"
   sodipodi:docname="pointer_24.svg"
   inkscape:version="1.1.2 (0a00cf5339, 2022-02-04)"
   xmlns:inkscape="http://www.inkscape.org/namespaces/inkscape"
   xmlns:sodipodi="http://sodipodi.sourceforge.net/DTD/sodipodi-0.dtd"
   xmlns="http://www.w3.org/2000/svg"
   xmlns:svg="http://www.w3.org/2000/svg">
  <sodipodi:namedview
     id="namedview11"
     pagecolor="#ffffff"
     bordercolor="#666666"
     borderopacity="1.0"
     inkscape:pageshadow="2"
     inkscape:pageopacity="0.0"
     inkscape:pagecheckerboard="0"
     showgrid="true"
     inkscape:zoom="18.55"
     inkscape:cx="15.983827"
     inkscape:cy="16.010782"
     inkscape:window-width="1896"
     inkscape:window-height="1020"
     inkscape:window-x="9"
     inkscape:window-y="45"
     inkscape:window-maximized="1"
     inkscape:current-layer="svg5958">
    <inkscape:grid
       type="xygrid"
       id="grid1260" />
  </sodipodi:namedview>
  <defs
     id="defs5960">
    <filter
       id="filter858"
       style="color-interpolation-filters:sRGB"
       width="1.126"
       height="1.115"
       x="-0.059999999"
       y="-0.059999999">
      <feGaussianBlur
         id="feGaussianBlur860"
         stdDeviation=".525" />
    </filter>
    <filter
       id="filter826"
       style="color-interpolation-filters:sRGB"
       width="1.1512001"
       height="1.1374542"
       x="-0.075599976"
       y="-0.068727076">
      <feGaussianBlur
         id="feGaussianBlur828"
         stdDeviation=".63" />
    </filter>
    <filter
       inkscape:collect="always"
       style="color-interpolation-filters:sRGB"
       id="filter1673"
       x="-0.025088185"
       y="-0.022136265"
       width="1.0501764"
       height="1.0442725">
      <feGaussianBlur
         inkscape:collect="always"
         stdDeviation="0.15679907"
         id="feGaussianBlur1675" />
    </filter>
  </defs>
  <path
     style="color:#000000;opacity:0.1;fill:#000000;fill-opacity:1;stroke-linecap:round;stroke-linejoin:round;-inkscape-stroke:none;filter:url(#filter1673)"
     d="m 10.515195,3.499944 c -0.6294275,0 -1.2142834,0.3600853 -1.5664059,0.8652344 C 8.5966665,4.8703274 8.4312109,5.5103976 8.4312109,6.2479909 V 11.175727 C 8.1941737,11.014329 7.8867532,10.673295 7.6655859,10.566352 6.947758,10.219253 6.1784934,10.155473 5.5913672,10.462836 4.4171148,11.07756 4.5015234,12.316352 4.5015234,12.316352 a 1.0001,1.0001 0 0 0 0.4257813,0.875 c 0.9705864,0.676801 2.0192726,2.365223 3.0195312,3.951172 0.5001294,0.792975 0.9981399,1.558314 1.5839844,2.183594 0.5858447,0.62528 1.3326147,1.180202 2.2890627,1.173828 h 6.205078 a 1.0001,1.0001 0 0 0 0.998046,-0.9375 l 0.460938,-7.326172 v -0.002 C 19.59536,11.115186 19.115201,10.079945 18.181211,9.6893971 17.834331,9.5443495 17.429418,9.6484451 17.044492,9.749944 16.702074,9.3042282 16.236162,8.9839748 15.737851,8.8612721 15.322712,8.7590495 14.877919,8.8405639 14.458554,8.9726003 14.152981,8.5956777 13.761937,8.2976954 13.327695,8.1640065 13.100907,8.0941858 12.846021,8.1887573 12.597226,8.1991627 V 6.2479909 c 0,-0.7375933 -0.165455,-1.3776635 -0.517578,-1.8828125 C 11.727526,3.8600293 11.144623,3.499944 10.515195,3.499944 Z m 0,2.3632812 c 0.0349,0.1229237 0.08203,0.1618686 0.08203,0.3847657 v 3.4824219 a 1.0001,1.0001 0 0 0 1.914063,0.4082032 c 0.07203,-0.1610925 0.06758,-0.113399 0.226562,-0.06445 0.158985,0.04895 0.28383,0.117144 0.271485,0.388672 a 1.0001,1.0001 0 0 0 1.914062,0.447266 c 0.05368,-0.121696 0.15646,-0.149663 0.335938,-0.105468 0.179477,0.04419 0.333866,0.07251 0.332031,0.550781 a 1.0001,1.0001 0 0 0 1.853516,0.394531 c 0.03846,0.06377 0.07491,0.02683 0.04883,0.287109 a 1.0001,1.0001 0 0 0 -0.0039,0.03711 l -0.404305,6.425781 H 11.81207 a 1.0001,1.0001 0 0 0 -0.0059,0 c -0.140413,9.36e-4 -0.412205,-0.10965 -0.816366,-0.541016 -0.40416,-0.431365 -0.867145,-1.11475 -1.3515618,-1.882812 -0.7306499,-1.158474 -1.5690303,-2.421425 -2.5761719,-3.492188 0.386968,0.226719 0.8821723,0.558141 1.6503906,1.351563 A 1.0001,1.0001 0 0 0 10.431211,13.24018 V 6.2479909 c 0,-0.2230088 0.04906,-0.2618279 0.08398,-0.3847657 z"
     id="path1635" />
  <path
     style="color:#000000;fill:#EFF1F5;stroke-linecap:round;stroke-linejoin:round;-inkscape-stroke:none;fill-opacity:1"
     d="M 10.015625,3 C 9.3861972,3 8.8013413,3.3600853 8.4492188,3.8652344 8.0970962,4.3703834 7.9316406,5.0104536 7.9316406,5.7480469 V 10.675781 C 7.6946034,10.514383 7.3871829,10.173349 7.1660156,10.066406 6.4481877,9.7193081 5.6789231,9.6555288 5.0917969,9.9628906 3.9175445,10.577614 4.0019531,11.816406 4.0019531,11.816406 a 1.0001,1.0001 0 0 0 0.4257813,0.875 c 0.9705864,0.676801 2.0192726,2.365223 3.0195312,3.951172 0.5001294,0.792975 0.9981399,1.558314 1.5839844,2.183594 0.5858445,0.62528 1.332615,1.180202 2.289063,1.173828 h 6.205078 a 1.0001,1.0001 0 0 0 0.998046,-0.9375 l 0.460938,-7.326172 v -0.002 C 19.09579,10.61524 18.615631,9.5800008 17.681641,9.1894531 17.334761,9.0444055 16.929848,9.1485011 16.544922,9.25 16.202504,8.8042842 15.736592,8.4840308 15.238281,8.3613281 14.823142,8.2591055 14.378349,8.3406199 13.958984,8.4726563 13.653411,8.0957337 13.262367,7.7977514 12.828125,7.6640625 12.601337,7.5942418 12.346451,7.6888133 12.097656,7.6992187 V 5.7480469 c 0,-0.7375933 -0.165455,-1.3776635 -0.517578,-1.8828125 C 11.227956,3.3600853 10.645053,3 10.015625,3 Z m 0,2.3632812 c 0.0349,0.1229237 0.08203,0.1618686 0.08203,0.3847657 v 3.4824219 a 1.0001,1.0001 0 0 0 1.914063,0.4082031 c 0.07203,-0.1610924 0.06758,-0.1133993 0.226562,-0.064453 0.158985,0.048946 0.28383,0.1171443 0.271485,0.3886718 a 1.0001,1.0001 0 0 0 1.914062,0.4472654 c 0.05368,-0.121696 0.15646,-0.149663 0.335938,-0.105468 0.179477,0.04419 0.333866,0.07251 0.332031,0.550781 A 1.0001,1.0001 0 0 0 16.945312,11.25 c 0.03846,0.06377 0.07491,0.02683 0.04883,0.287109 a 1.0001,1.0001 0 0 0 -0.0039,0.03711 L 16.585937,18 H 11.3125 a 1.0001,1.0001 0 0 0 -0.0059,0 C 11.166187,18.000936 10.894395,17.89035 10.490234,17.458984 10.086074,17.027619 9.6230891,16.344234 9.1386719,15.576172 8.408022,14.417698 7.5696416,13.154747 6.5625,12.083984 c 0.386968,0.226719 0.8821723,0.558141 1.6503906,1.351563 a 1.0001,1.0001 0 0 0 1.71875,-0.695313 V 5.7480469 c 0,-0.2230088 0.049063,-0.2618279 0.083984,-0.3847657 z"
     id="path1539" />
  <path
     id="path4236-1-58-5"
     style="display:inline;fill:#4C4F69;fill-opacity:1;stroke:none;stroke-width:0.764485"
     d="m 11.313042,18.99997 6.21185,2.8e-5 0.463748,-7.36354 c 0.157782,-1.574778 -1.371305,-2.230033 -1.895941,-0.776919 0.0067,-1.746277 -2.060846,-2.0398495 -2.584767,-0.852 0.0656,-1.442773 -1.862183,-2.0011923 -2.409603,-0.7769207 V 5.7480691 c 0,-2.3307614 -2.1662612,-2.3307614 -2.1662612,0 V 12.740353 C 5.1708605,8.855751 5,11.871998 5,11.871998 c 2.5558979,1.782255 4.1192364,7.142593 6.313042,7.127972 z"
     sodipodi:nodetypes="ccccccssccc" />
</svg>

<svg xmlns="http://www.w3.org/2000/svg" width="24" height="24">
    <defs>
        <filter id="a" width="1.05" height="1.044" x="-.025" y="-.022" style="color-interpolation-filters:sRGB">
            <feGaussianBlur stdDeviation=".157"/>
        </filter>
    </defs>
    <path d="M10.515 3.5c-.63 0-1.214.36-1.566.865S8.43 5.51 8.43 6.248v4.928c-.237-.162-.544-.503-.765-.61-.718-.347-1.488-.41-2.075-.103-1.174.615-1.09 1.853-1.09 1.853a1 1 0 0 0 .426.875c.97.677 2.02 2.366 3.02 3.952.5.792.998 1.558 1.584 2.183s1.332 1.18 2.289 1.174h6.205a1 1 0 0 0 .998-.938l.46-7.326v-.002c.112-1.119-.368-2.154-1.302-2.545-.347-.145-.752-.04-1.137.06-.342-.445-.808-.765-1.306-.888-.415-.102-.86-.02-1.28.112-.305-.377-.696-.675-1.13-.809-.227-.07-.482.025-.73.035V6.248c0-.738-.166-1.378-.518-1.883s-.935-.865-1.565-.865m0 2.363c.035.123.082.162.082.385V9.73a1 1 0 0 0 1.914.409c.072-.161.068-.114.227-.065.159.05.284.117.271.389a1 1 0 0 0 1.914.447c.054-.122.157-.15.336-.105.18.044.334.072.332.55a1 1 0 0 0 1.854.395c.038.064.075.027.049.287l-.004.037-.404 6.426h-5.28c-.14 0-.412-.11-.816-.541s-.867-1.115-1.352-1.883c-.73-1.158-1.569-2.421-2.576-3.492.387.227.882.558 1.65 1.351a1 1 0 0 0 1.72-.695V6.248c0-.223.048-.262.083-.385" style="color:#000;opacity:.1;fill:#000;fill-opacity:1;stroke-linecap:round;stroke-linejoin:round;-inkscape-stroke:none;filter:url(#a)"/>
    <path d="M10.016 3c-.63 0-1.215.36-1.567.865s-.517 1.145-.517 1.883v4.928c-.237-.162-.545-.503-.766-.61-.718-.347-1.487-.41-2.074-.103-1.174.615-1.09 1.853-1.09 1.853a1 1 0 0 0 .426.875c.97.677 2.019 2.366 3.02 3.952.5.793.997 1.558 1.583 2.183s1.333 1.18 2.29 1.174h6.204a1 1 0 0 0 .998-.937l.461-7.327v-.002c.112-1.119-.368-2.154-1.302-2.545-.347-.145-.752-.04-1.137.061-.342-.446-.808-.766-1.307-.889-.415-.102-.86-.02-1.279.112-.306-.377-.697-.675-1.13-.809-.228-.07-.483.025-.731.035V5.748c0-.738-.166-1.378-.518-1.883S10.645 3 10.016 3m0 2.363c.035.123.082.162.082.385V9.23a1 1 0 0 0 1.914.409c.072-.161.067-.114.226-.065.16.05.284.117.272.389a1 1 0 0 0 1.914.447c.054-.122.156-.15.336-.105.18.044.334.072.332.55a1 1 0 0 0 1.853.395c.039.064.075.027.05.287l-.005.037L16.586 18h-5.279c-.14 0-.413-.11-.817-.541s-.867-1.115-1.351-1.883c-.731-1.158-1.57-2.421-2.576-3.492.386.227.882.558 1.65 1.352a1 1 0 0 0 1.719-.696V5.748c0-.223.049-.262.084-.385" style="color:#000;fill:#eff1f5;stroke-linecap:round;stroke-linejoin:round;-inkscape-stroke:none;fill-opacity:1"/>
    <path d="M11.313 19h6.212l.464-7.364c.157-1.574-1.372-2.23-1.896-.776.006-1.747-2.061-2.04-2.585-.852.066-1.443-1.862-2.002-2.41-.777V5.748c0-2.33-2.166-2.33-2.166 0v6.992C5.171 8.856 5 11.872 5 11.872c2.556 1.782 4.12 7.143 6.313 7.128" style="display:inline;fill:#4c4f69;fill-opacity:1;stroke:none;stroke-width:.764485"/>
</svg>
